X:2670
T:Polonäs efter Pehr Andersson
S:efter Pehr Andersson
B:Pehr Anderssons notbok, nr 38
B:http://www.smus.se/earkiv/fmk/browselarge.php?lang=sw&katalogid=Ma+1&bildnr=00013
O:Måstorp, Närke
R:Slängpolska
Z:Nils L
M:3/4
L:1/8
K:Am
AB cB cA | e2 dc BA | e2 dc BA | Ac BA B^G | A2 A,4 ::
cd ed ec | fe dc BG | cd ed ec | fe dc BG | 
AB cB cA | "^fjärdedelar?"d2 cB AE | cd ed ec | e2 ag fe | 
dc BA B^G | A^G A4 :|
(:musicend:)
(:music:)
